X: 43318
T: Woodsplitter's
R: reel
M: 4/4
K: Aminor
|:A2cA eAcA|eAcA BAGB|A2cA eAcA|FDGF E4|
A2cA eAcA|eAcA BAGB|A2cA eAcA|BAGB A4:|
|:a~e3 f~d3|e~c3 d~B3|a~e3 f~d3|fdgf e4|
a~e3 f~d3|e~c3 d~B3|a~e3 f~d3|ecBc A4:|

